X: 85
T:Landsdowne Lass
M:4/4
L:1/8
Z:Gerry Strong,  29/9/1999
K:D
DEFA GEFE|DEFA defa|g2ed cAGE|FAGF EAGE|\
DEFA GEFE|DEFA defa|g2ed cAGE|FAGE D4:||\
d2fd adfa|bfaf gfed|cAA2 BGG2|AGFD EFGE|\
defa g2fg|a2ge fdcA|ABce dBAG|(3FGA GED2:||

